X:1
T:Title
%%score { ( 1 3 ) | ( 2 4 ) }
L:1/8
Q:1/4=100
M:4/4
K:F
V:1 treble nm="Grand Piano"
V:3 treble 
V:2 bass 
V:4 bass 
V:1
 A2 A2 c>B A>[DG] | [CF]>[CG] [FA]>[CG] [CF]4 | z4 [Ec]4 | A2 c2 c4 | A2 A2 c>B A>[DG] | %5
w: J.~B.~Trowbridge * * * * *|||||
 [CF]>[CG] [FA]>[EG] [DF]4 | [Fd]2 [Fd]2 [CFc]>[CFA] [A,F]>[DFG] | [CFA]2 [B,CG]2 [A,CF]4 | %8
w: |||
 D>^C D>E F>E D>E | F2[K:bass] [F,D]2 [A,^CE]4 | F>E F>G A>G F>G | z4 [Ec]4 | c2 c>B A2 A>G | %13
w: |||||
 F2 [FA]2 [FB]2 [F=B]2 | [Fc]2 [=B,F]2 [CFA]3 [_B,CG] |[M:3/4] [A,CF]6 |] %16
w: |||
V:2
 [F,CF]2 [F,CF]2 [F,A,F]>[F,DF] [F,CF]>[B,,B,] | [C,A,]>[C,B,] [C,C]>[C,B,] [F,A,]4 | %2
 [C,C]2 [C,G,]2 G,2 z2 | [F,CF]2 [F,A,F]2 [F,A,F]4 | %4
 [F,CF]2 [F,CF]2 [F,A,F]>[F,DF] [F,CF]>[B,,B,] | [C,A,]>[C,B,] [C,C]>[C,B,] [D,A,]4 | %6
 [B,,B,]2 [B,,B,]2 A,,>A,, D,>B,, | C,2 C,2 F,4 | D,>^C, D,>E, F,>E, D,>E, | F,2 B,,2 A,,4 | %10
 D,>^C, D,>E, F,>E, D,>E, | F,2 G,2 C,4 | [F,A,F]2 [F,A,F]>[F,DF] [F,CF]2 [F,CF]>[F,B,D] | %13
 [F,A,]2 [_E,C]2 [D,B,]2 [^C,_A,]2 | [C,A,]2 D,2 C,3 C, |[M:3/4] F,6 |] %16
V:3
 x8 | x8 | [EG]2 [Ec]2 z2 C2 | x8 | x8 | x8 | x8 | x8 | x8 | x2[K:bass] x6 | x8 | %11
 A2 [DF=B]2 C2 B,2 | x8 | x8 | x8 |[M:3/4] x6 |] %16
V:4
 x8 | x8 | z4 C,4 | x8 | x8 | x8 | x8 | x8 | x8 | x8 | x8 | x8 | x8 | x8 | x8 |[M:3/4] x6 |] %16

